static/assets/template/assets/img/icons/essential/detailed/ATM.svg

<svg height="144" viewBox="0 0 146 144" width="146" xmlns="http://www.w3.org/2000/svg"><g fill="none" fill-rule="evenodd" transform="translate(1 2)"><path d="m80.2 140.3h-79.4v-76.4l9-63.6h95.3v20.2 25.7" fill-rule="nonzero"/><path d="m106 140.3h-105.2v-76.4l9-63.6h95.3v20.2 119.8" fill-rule="nonzero"/><g transform="translate(87 55)"><path d="m.7 81.2v-76.9c0-2.4 1.9-4.3 4.3-4.3h47c2.4 0 4.3 1.9 4.3 4.3v76.9c0 2.4-1.9 4.3-4.3 4.3h-47c-2.4 0-4.3-1.9-4.3-4.3z" fill-rule="nonzero"/><path d="m56.3 4.3v76.9c0 2.4-1.9 4.3-4.3 4.3h-47c-2.4 0-4.3-1.9-4.3-4.3v-76.9c0-2.4 1.9-4.3 4.3-4.3h47c2.4 0 4.3 1.9 4.3 4.3z" fill-rule="nonzero"/><path d="m34.6 0h10.2v85.5h-10.2z" fill-rule="nonzero"/><g stroke-linecap="round" stroke-linejoin="round" stroke-width="3"><path d="m.7 81.2v-76.9c0-2.4 1.9-4.3 4.3-4.3h47c2.4 0 4.3 1.9 4.3 4.3v76.9c0 2.4-1.9 4.3-4.3 4.3h-47c-2.4 0-4.3-1.9-4.3-4.3z"/><path d="m34.3 6.9v-6.9"/><path d="m34.3 24v-5.7"/><path d="m34.3 85.5v-53"/><path d="m44.6 0v73.9"/><g transform="translate(6 59)"><path d="m1.8 9.4c-.9-1-1.4-2.3-1.4-3.7 0-3.1 2.5-5.6 5.6-5.6s5.6 2.5 5.6 5.6c0 .7-.1 1.4-.4 2-.5 1.2-1.1 1.6-1.5 1.9" fill-rule="nonzero"/><circle cx="5.8" cy="14" r="5.7"/></g><path d="m17.8 41.1v7.8"/><path d="m17.8 10.5v24.6"/><path d="m11.7 10.5v11.8"/></g></g><path d="m80.2 140.3h-79.4v-76.4l9-63.6h95.3v20.2 25.7" stroke-linecap="round" stroke-linejoin="round" stroke-width="3"/><path d="m72.6 140.3v-76.4l9.1-63.6" stroke-linecap="round" stroke-linejoin="round" stroke-width="3"/><path d="m28.8 82.4h8.6v12.8h-26.8v-12.8h1.7" stroke-linecap="round" stroke-linejoin="round" stroke-width="3"/><path d="m16.5 82.4h4.2" stroke-linecap="round" stroke-linejoin="round" stroke-width="3"/><path d="m21.6 9.4h45.6c2 0 3.4 1.7 3.1 3.7l-4.7 30.5c-.2 1.6-1.6 2.7-3.2 2.7l-45.5-.3c-1.9 0-3.4-1.7-3.1-3.7l4.7-30.2c.2-1.6 1.5-2.7 3.1-2.7z" fill-rule="nonzero"/><g stroke-linecap="round" stroke-linejoin="round" stroke-width="3"><path d="m21.6 9.4h45.6c2 0 3.4 1.7 3.1 3.7l-4.7 30.5c-.2 1.6-1.6 2.7-3.2 2.7l-45.5-.3c-1.9 0-3.4-1.7-3.1-3.7l4.7-30.2c.2-1.6 1.5-2.7 3.1-2.7z"/><path d="m64 63.9h2.7"/><path d="m.8 63.9h56.4"/><path d="m38.3 54.7h24.8"/><g transform="translate(36 16)"><path d="m9.5 5.3c-7.7-4.8-10.5 2.4-7.3 4.9 2.3 1.8 7.8.6 7.6 5-.3 4.7-6.7 4.6-8.9 1.5"/><path d="m5.3.6v3"/><path d="m5.3 19v3"/></g></g></g></svg>

<?xml version="1.0" encoding="UTF-8"?>
<svg width="146px" height="144px" viewBox="0 0 146 144" version="1.1" xmlns="http://www.w3.org/2000/svg" xmlns:xlink="http://www.w3.org/1999/xlink">
    <!-- Generator: Sketch 51.2 (57519) - http://www.bohemiancoding.com/sketch -->
    <title>ATM</title>
    <desc>Created with Sketch.</desc>
    <defs></defs>
    <g id="Page-1" stroke="none" stroke-width="1" fill="none" fill-rule="evenodd">
        <g id="ATM" transform="translate(1.000000, 2.000000)">
            <path d="M80.2,140.3 L0.8,140.3 L0.8,63.9 L9.8,0.3 L105.1,0.3 C105.1,0.3 105.1,8.3 105.1,20.5 L105.1,46.2" id="Shape" class="fill-neutral" fill-rule="nonzero"></path>
            <path d="M106,140.3 L0.8,140.3 L0.8,63.9 L9.8,0.3 L105.1,0.3 C105.1,0.3 105.1,8.3 105.1,20.5 L105.1,140.3" id="Shape" class="fill-primary-100" fill-rule="nonzero"></path>
            <g id="Group" transform="translate(87.000000, 55.000000)">
                <path d="M0.7,81.2 L0.7,4.3 C0.7,1.9 2.6,-4.54747351e-13 5,-4.54747351e-13 L52,-4.54747351e-13 C54.4,-4.54747351e-13 56.3,1.9 56.3,4.3 L56.3,81.2 C56.3,83.6 54.4,85.5 52,85.5 L5,85.5 C2.6,85.5 0.7,83.6 0.7,81.2 Z" id="Shape" class="fill-neutral" fill-rule="nonzero"></path>
                <path d="M56.3,4.3 L56.3,81.2 C56.3,83.6 54.4,85.5 52,85.5 L5,85.5 C2.6,85.5 0.7,83.6 0.7,81.2 L0.7,4.3 C0.7,1.9 2.6,0 5,0 L52,0 C54.4,0 56.3,1.9 56.3,4.3 Z" id="Shape" class="fill-primary-200" fill-rule="nonzero"></path>
                <rect id="Rectangle-path" class="fill-primary-500" fill-rule="nonzero" x="34.6" y="0" width="10.2" height="85.5"></rect>
                <path d="M0.7,81.2 L0.7,4.3 C0.7,1.9 2.6,-4.54747351e-13 5,-4.54747351e-13 L52,-4.54747351e-13 C54.4,-4.54747351e-13 56.3,1.9 56.3,4.3 L56.3,81.2 C56.3,83.6 54.4,85.5 52,85.5 L5,85.5 C2.6,85.5 0.7,83.6 0.7,81.2 Z" id="Shape" class="stroke-primary" stroke-width="3" stroke-linecap="round" stroke-linejoin="round"></path>
                <path d="M34.3,6.9 L34.3,0" id="Shape" class="stroke-primary" stroke-width="3" stroke-linecap="round" stroke-linejoin="round"></path>
                <path d="M34.3,24 L34.3,18.3" id="Shape" class="stroke-primary" stroke-width="3" stroke-linecap="round" stroke-linejoin="round"></path>
                <path d="M34.3,85.5 L34.3,32.5" id="Shape" class="stroke-primary" stroke-width="3" stroke-linecap="round" stroke-linejoin="round"></path>
                <path d="M44.6,0 L44.6,73.9" id="Shape" class="stroke-primary" stroke-width="3" stroke-linecap="round" stroke-linejoin="round"></path>
                <g transform="translate(6.000000, 59.000000)" class="stroke-primary" stroke-linecap="round" stroke-linejoin="round" stroke-width="3">
                    <path d="M1.8,9.4 C0.9,8.4 0.4,7.1 0.4,5.7 C0.4,2.6 2.9,0.1 6,0.1 C9.1,0.1 11.6,2.6 11.6,5.7 C11.6,6.4 11.5,7.1 11.2,7.7 C10.7,8.9 10.1,9.3 9.7,9.6" id="Shape" class="fill-neutral" fill-rule="nonzero"></path>
                    <circle id="Oval" cx="5.8" cy="14" r="5.7"></circle>
                </g>
                <path d="M17.8,41.1 L17.8,48.9" id="Shape" class="stroke-primary" stroke-width="3" stroke-linecap="round" stroke-linejoin="round"></path>
                <path d="M17.8,10.5 L17.8,35.1" id="Shape" class="stroke-primary" stroke-width="3" stroke-linecap="round" stroke-linejoin="round"></path>
                <path d="M11.7,10.5 L11.7,22.3" id="Shape" class="stroke-primary" stroke-width="3" stroke-linecap="round" stroke-linejoin="round"></path>
            </g>
            <path d="M80.2,140.3 L0.8,140.3 L0.8,63.9 L9.8,0.3 L105.1,0.3 C105.1,0.3 105.1,8.3 105.1,20.5 L105.1,46.2" id="Shape" class="stroke-primary" stroke-width="3" stroke-linecap="round" stroke-linejoin="round"></path>
            <polyline id="Shape" class="stroke-primary" stroke-width="3" stroke-linecap="round" stroke-linejoin="round" points="72.6 140.3 72.6 63.9 81.7 0.3"></polyline>
            <polyline id="Shape" class="stroke-primary" stroke-width="3" stroke-linecap="round" stroke-linejoin="round" points="28.8 82.4 37.4 82.4 37.4 95.2 10.6 95.2 10.6 82.4 12.3 82.4"></polyline>
            <path d="M16.5,82.4 L20.7,82.4" id="Shape" class="stroke-primary" stroke-width="3" stroke-linecap="round" stroke-linejoin="round"></path>
            <path d="M21.6,9.4 L67.2,9.4 C69.2,9.4 70.6,11.1 70.3,13.1 L65.6,43.6 C65.4,45.2 64,46.3 62.4,46.3 L16.9,46 C15,46 13.5,44.3 13.8,42.3 L18.5,12.1 C18.7,10.5 20,9.4 21.6,9.4 Z" id="Shape" class="fill-primary-500" fill-rule="nonzero"></path>
            <path d="M21.6,9.4 L67.2,9.4 C69.2,9.4 70.6,11.1 70.3,13.1 L65.6,43.6 C65.4,45.2 64,46.3 62.4,46.3 L16.9,46 C15,46 13.5,44.3 13.8,42.3 L18.5,12.1 C18.7,10.5 20,9.4 21.6,9.4 Z" id="Shape" class="stroke-primary" stroke-width="3" stroke-linecap="round" stroke-linejoin="round"></path>
            <path d="M64,63.9 L66.7,63.9" id="Shape" class="stroke-primary" stroke-width="3" stroke-linecap="round" stroke-linejoin="round"></path>
            <path d="M0.8,63.9 L57.2,63.9" id="Shape" class="stroke-primary" stroke-width="3" stroke-linecap="round" stroke-linejoin="round"></path>
            <path d="M38.3,54.7 L63.1,54.7" id="Shape" class="stroke-primary" stroke-width="3" stroke-linecap="round" stroke-linejoin="round"></path>
            <g id="Group" transform="translate(36.000000, 16.000000)" class="stroke-neutral" stroke-linecap="round" stroke-linejoin="round" stroke-width="3">
                <path d="M9.5,5.3 C1.8,0.5 -1,7.7 2.2,10.2 C4.5,12 10,10.8 9.8,15.2 C9.5,19.9 3.1,19.8 0.9,16.7" id="Shape"></path>
                <path d="M5.3,0.6 L5.3,3.6" id="Shape"></path>
                <path d="M5.3,19 L5.3,22" id="Shape"></path>
            </g>
        </g>
    </g>
</svg>
